X:1
T:Title
%%score { 1 | 2 }
L:1/8
M:4/4
K:Ab
V:1 treble nm="Grand Piano"
V:2 bass 
V:1
 z4 z2[Q:1/4=110] [Ec][DB] | [CA]2 [CA]2 [_CG]2 [CF]2 | [CF]2 [CE]4 [A,C][B,D] | %3
 [CE]2 [CF]2 [DG]2 [DE]2 |[M:3/4] [CA]6 |[M:1/4] [Ec][DB] |[M:4/4] [CA]2 [CA]2 [_CG]2 [CF]2 | %7
 [CF]2 [CE]4 [CE][CF] | [EG]2 [EB]2 [=DF]2 [DG]2 |[M:3/4] E6 |[M:1/4] EE |[M:4/4] d2 d4 FG | %12
 [CA]2 [Ec]4 [Ac][Ac] | [GB]2 [Gd]2 [Ge]2 [Gd]2 |[M:3/4] c6 |[M:1/4] cc | %16
[M:4/4] [Fd]2 [DF]4 [Fd][Fd] | c2 E4 A[Ac] | [Ge]2 [Fd]2 [Ec]2 [DB]2 |[M:3/4] [CA]6 |] %20
V:2
 z4 z2 [A,,A,][A,,A,] | [A,,A,]2 [A,,E,]2 [A,,=D,]2 [A,,D,]2 | [A,,E,]2 [A,,E,]4 [A,,E,][A,,E,] | %3
 [A,,A,]2 [A,,A,]2 [B,,E,]2 [E,G,]2 |[M:3/4] [A,,E,]6 |[M:1/4] [A,,A,][A,,A,] | %6
[M:4/4] [A,,A,]2 [A,,E,]2 [A,,=D,]2 [A,,D,]2 | [A,,E,]2 [A,,E,]4 [A,,A,][A,,A,] | %8
 [B,,G,]2 [B,,G,]2 [B,,A,]2 [B,,B,]2 |[M:3/4] [E,G,]6 |[M:1/4] [E,G,][E,G,] | %11
[M:4/4] [E,G,E]2 [E,G,E]4 [E,B,D][E,B,D] | [A,,A,]2 [A,,A,]4 [A,E][A,E] | %13
 [E,E]2 [E,B,]2 [E,B,]2 [E,E]2 |[M:3/4][K:treble] [A,EA]6 |[M:1/4] [A,E_G][A,EG] | %16
[M:4/4][K:bass] [D,D]2 [D,A,]4 [D,A,][D,A,] | [E,A,E]2 [E,A,C]4 [E,CE][E,E] | %18
 [E,B,]2 [E,A,]2 [E,G,]2 [E,G,]2 |[M:3/4] [A,,A,]6 |] %20

